src/assets/images/networks/zksync-network.svg

<svg fill="none" height="300" viewBox="0 0 300 300" width="300" xmlns="http://www.w3.org/2000/svg"><path d="m0 0h300v300h-300z" fill="#fff"/><g clip-rule="evenodd" fill-rule="evenodd"><path d="m271.02 150.451-67.599-67.3512v49.3252l-67.12 49.386 67.12.046v35.946z" fill="#4e529a"/><path d="m32.7097 150.427 67.5993 67.351v-48.928l67.12-49.783-67.12-.046v-35.9457z" fill="#8c8dfc"/></g></svg>

<svg width="300" height="300" viewBox="0 0 300 300" fill="none" xmlns="http://www.w3.org/2000/svg">
<rect width="300" height="300" fill="white"/>
<path fill-rule="evenodd" clip-rule="evenodd" d="M271.02 150.451L203.421 83.0998V132.425L136.301 181.811L203.421 181.857V217.803L271.02 150.451Z" fill="#4E529A"/>
<path fill-rule="evenodd" clip-rule="evenodd" d="M32.7097 150.427L100.309 217.778V168.85L167.429 119.067L100.309 119.021V83.0753L32.7097 150.427Z" fill="#8C8DFC"/>
</svg>
